X:1
T:Out On the Ocean
R:Jig
L:1/8
M:6/8
K:A
cd|"A"efe cAB| cec "E7"BcB| "A"AEF "F#m"A2B| "Bm"cef "E7"ecd|
"A"efe cAB| cec "E7"BcB|  "D"AEF "Bm"A2B| "E7"cAA "A"A:|
|:ce|"D"f2f- fec|f2f- fec| "A"e2e ecd| efe "E7"ecB|
"A"A3 "E"B3| "F#m"cAF "C#m"E2E|"D"A2A "E7"BAB|"A"cAA A:|
